X:309
T:Stoney Steps Hornpipe,aka. RH.309
R:.hornpipe
S:Rev.R.Harrison’s MS,c1815,Cumbria
N:The second strain is unknown to me..CGP.
O:England
A:Temple Sowerby,Cumbria
Z:vmp.Simon Wilson. Review PJH, 2008.
M:C|
L:1/8
Q:1/2=80
K:D
fe|dfac’ d’afd|efge dcBA|BGFG Edef|ggab dcBA|!
dfac’ d’afd|efge dcBA|BGFG Edef|gedc d2:|!
|:a2|d’afa gaea|fada eada|cada eafa|d’c’ag a3c’|!
d’afa gaea|fada ecAF|FdGd AdBd|gedc d2:|
W:Titled merely “Hornpipe” in the MS.

